!!!!SEGMENT: pl-kk--kk-i-2--021-005_lilius-franciszek--missa-a-4-voci-benedictus.krn
!!!cenid: 16xx:1638
!!!COM: Lilius, Franciszek
!!!COM-rismID: pe30020509
!!!CDT: ~1600-1657
!!!CNT: Polish
!!!OPR: Missa a 4 voci
!!!OTL: Benedictus
!!!OMV: 005
!!!PDT:
!!!AGN: Sacred; Mass
!!!SMS-siglum: PL-Kk
!!!SMS-shelfmark: Kk.I.2
!!!SMS-shelfwork: 021-005 M
!!!NIFC-rismSourceID: 300258016
!!!NIFC-rismChildID: 300258037
!!!NIFC-islandoraID: pl-kk:750
!!!URL-pdf-islandora: https://repozytorium.nifc.pl/islandora/object/pl-kk%3A750/datastream/PDF/view
!!!URL-scan: https://polish.musicsources.pl/pl/lokalizacje/galeria/rekopisy/5828 @EN{Scan on Polish Music Sources Website} @PL{Skany w portalu Dziedzictwo Muzyki Polskiej w otwartym dostępie}
!!!ONB-nifc: Części mszy: Kyrie, Gloria, Credo, Sanctus, Benedictus, Agnus Dei; skany: C: 0049; A: 0151; T: 0254; B: 0352;
!!!AIN: 1 alto 1 bass 1 soprn 1 tenor
**kern	**text	**kern	**text	**kern	**text	**kern	**text
*part4	*part4	*part3	*part3	*part2	*part2	*part1	*part1
*staff4	*staff4	*staff3	*staff3	*staff2	*staff2	*staff1	*staff1
*Ibass	*	*Itenor	*	*Ialto	*	*Isoprn	*
*I"Bassus	*	*I"Tenor	*	*I"Altus	*	*I"Cantus	*
*I'B	*	*I'T	*	*I'A	*	*I'S	*
*clefF4	*	*clefC4	*	*clefC4	*	*clefC3	*
*k[b-]	*	*k[b-]	*	*k[b-]	*	*k[b-]	*
*g:	*	*g:	*	*g:	*	*g:	*
*M2/1	*	*M2/1	*	*M2/1	*	*M2/1	*
=1-	=1-	=1-	=1-	=1-	=1-	=1-	=1-
*xywh-#352:1665,3222,6050,842	*	*xywh-#254:1628,634,6113,1009	*	*xywh-#151:7810,1446,6362,843	*	*xywh-#49:1448,518,6248,1052	*
0r	.	1.G	Be-	0r	.	0r	.
!	!	!LO:TX:t=P:problem=kreska pseudotaktowa	!	!	!	!	!
.	.	2G/	-ne-	.	.	.	.
=2-	=2-	=2-	=2-	=2-	=2-	=2-	=2-
1r	.	1B-	-di-	0r	.	0r	.
1.D	Be-	2A/	-ctus	.	.	.	.
.	.	2A/	.	.	.	.	.
=3-	=3-	=3-	=3-	=3-	=3-	=3-	=3-
.	.	1.d	qui	0r	.	0r	.
!LO:TX:t=P:problem=kreska pseudotaktowa	!	!	!	!	!	!	!
2D/	-ne-	.	.	.	.	.	.
1E-X	-di-	.	.	.	.	.	.
!	!	!LO:TX:t=P:problem=kreska pseudotaktowa	!	!	!	!	!
.	.	2c\	ve-	.	.	.	.
=4-	=4-	=4-	=4-	=4-	=4-	=4-	=4-
!	!	!	!	!	!	!LO:TX:t=P:problem=kreska pseudotaktowa	!
2D/	-ctus	2.d\	.	0r	.	1r	.
!LO:TX:t=P:problem=kreska pseudotaktowa	!	!	!	!	!	!	!
2D/	.	.	.	.	.	.	.
.	.	4c\	.	.	.	.	.
1.G	qui	4B-\	.	.	.	2r	.
.	.	4A/	.	.	.	.	.
.	.	1B-\	.	.	.	1d\	Be-
=5-	=5-	=5-	=5-	=5-	=5-	=5-	=5-
!	!	!	!	!LO:TX:t=P:problem=kreska pseudotaktowa	!	!	!
.	.	.	.	1r	.	.	.
!	!	!LO:TX:t=P:problem=kreska pseudotaktowa	!	!	!	!LO:TX:t=P:problem=kreska pseudotaktowa	!
2F\	ve-	2A/	.	.	.	2d\	-ne-
2E-X\	.	2G/	.	2r	.	1e-X	-dic-
!LO:TX:t=P:problem=kreska pseudotaktowa	!	!	!	!	!	!	!
2C/	.	1c\	.	1G/	Be-	.	.
=6-	=6-	=6-	=6-	=6-	=6-	=6-	=6-
0GG	.	.	.	.	.	2d\	.
!	!	!	!	!LO:TX:t=P:problem=kreska pseudotaktowa	!	!LO:TX:t=P:problem=kreska pseudotaktowa	!
.	.	2B-\	.	2G/	-ne	2d\	-t(u)s
!	!	!LO:TX:t=P:problem=kreska pseudotaktowa	!	!	!	!	!
.	.	1G	nit	1B-	di-	1.g	qui
=7-	=7-	=7-	=7-	=7-	=7-	=7-	=7-
1D	.	1r	.	2A/	-ct(u)s	.	.
.	.	.	.	1d	qui	2f\	ve-
0AA	-nit	2r	.	.	.	0en	.
.	.	1A\	be-	4c\	.	.	.
!	!	!	!	!LO:TX:t=P:problem=kreska pseudotaktowa	!	!	!
.	.	.	.	4B#X\	.	.	.
=8-	=8-	=8-	=8-	=8-	=8-	=8-	=8-
!	!	!	!	!	!	!LO:TX:t=P:problem=kreska pseudotaktowa	!
.	.	.	.	1c#X	ve-	.	.
!	!	!LO:TX:t=P:problem=kreska pseudotaktowa	!	!	!	!	!
.	.	2A/	-ne	.	.	.	.
2r	.	1B-	di-	0d	-nit	2.d\	.
1D\	Be-	.	.	.	.	.	.
.	.	.	.	.	.	4e\	.
=9-	=9-	=9-	=9-	=9-	=9-	=9-	=9-
!	!	!	!	!LO:TX:t=P:problem=kreska pseudotaktowa	!	!	!
.	.	2A/	-ctus	.	.	4f\	.
.	.	.	.	.	.	4g\	.
!LO:TX:t=P:problem=kreska pseudotaktowa	!	!LO:TX:t=P:problem=kreska pseudotaktowa	!	!	!	!	!
2D/	-ne-	2A/	.	.	.	1a	.
1BB-	-dic-	1.d	qui	1r	.	.	.
.	.	.	.	.	.	2g\	.
=10-	=10-	=10-	=10-	=10-	=10-	=10-	=10-
*	*	*	*	*	*ij	*	*
*custos:AA	*	*	*	*	*	*	*
2AA/	-tus	.	.	1.A	qui	2f\	.
*	*	*custos:d	*	*	*	*custos:d	*
!	!	!	!	!	!	!LO:TX:t=P:problem=kreska pseudotaktowa	!
*xywh-#352:1658,3988,6078,1037	*	*	*	*	*	*	*
!LO:TX:t=P:problem=kreska pseudotaktowa	!	!	!	!	!	!	!
2AA/	qui	2c#X\	ve-	.	.	2e\	.
*	*	*xywh-#254:1531,1540,6141,857	*	*	*	*xywh-#49:1518,1377,6199,942	*
2.D/	ve-	2d,\	-nit	.	.	1d	.
*	*	*	*ij	*	*	*	*
!	!	!	!	!LO:TX:t=P:problem=kreska pseudotaktowa	!	!	!
.	.	1D/	qui-	2A/	ve-	.	.
4C/	.	.	.	.	.	.	.
=11-	=11-	=11-	=11-	=11-	=11-	=11-	=11-
!	!	!	!	!	!	!LO:TX:t=P:problem=kreska pseudotaktowa	!
2BB-/	.	.	.	1B-	-nit	1d	-nit
!	!	!LO:TX:t=P:problem=kreska pseudotaktowa	!	!	!	!	!
2GG/	.	2D/	-ve-	.	.	.	.
!LO:TX:t=P:problem=kreska pseudotaktowa	!	!	!	!	!	!	!
1D	-nit	1.F	-nit	2A/	qui	2r	.
!	!	!	!	!LO:TX:t=P:problem=kreska pseudotaktowa	!	!	!
.	.	.	.	2A/	ve-	1A/	be-
=12-	=12-	=12-	=12-	=12-	=12-	=12-	=12-
2r	.	.	.	2.d\	-nit	.	.
!	!	!	!	!	!	!LO:TX:t=P:problem=kreska pseudotaktowa	!
1D	be-	2F/	qui	.	.	2A/	-ne-
.	.	.	.	4c\	qui	.	.
.	.	2D/	ve-	2B-\	ve-	2B-/	-di-
2D/	-ne	1d\	-qui-	2F/	.	2A/	-ct(u)s
=13-	=13-	=13-	=13-	=13-	=13-	=13-	=13-
!	!	!	!	!LO:TX:t=P:problem=kreska pseudotaktowa	!	!	!
1E-X	di-	.	.	1G	-nit	2G/	.
!	!	!LO:TX:t=P:problem=kreska pseudotaktowa	!	!	!	!	!
.	.	2c\	-nit	.	.	1g	qui
*	*	*	*	*	*Xij	*	*
2D/	-ctus	2B-\	qui	1r	.	.	.
!LO:TX:t=P:problem=kreska pseudotaktowa	!	!	!	!	!	!LO:TX:t=P:problem=kreska pseudotaktowa	!
2D/	.	2A/	ve-	.	.	2f\	ve-
=14-	=14-	=14-	=14-	=14-	=14-	=14-	=14-
2.G\	qui	2.B-\	.	1r	.	4e-X\	.
.	.	.	.	.	.	4d\	.
.	.	.	.	.	.	1d	.
!	!	!LO:TX:t=P:problem=kreska pseudotaktowa	!	!	!	!	!
4F\	ve-	4A/	-nit	.	.	.	.
1E-X	.	1.G	qui	2r	.	.	.
!	!	!	!	!LO:TX:t=P:problem=kreska pseudotaktowa	!	!	!
.	.	.	.	2G/	in	2c/	.
=15-	=15-	=15-	=15-	=15-	=15-	=15-	=15-
!LO:TX:t=P:problem=kreska pseudotaktowa	!	!	!	!	!	!LO:TX:t=P:problem=kreska pseudotaktowa	!
1D	-nit	.	.	2A/	no-	0d	-nit
.	.	2F#X/	ve-	4A/	-mi-	.	.
.	.	.	.	4A/	-ne	.	.
!	!	!LO:TX:t=P:problem=kreska pseudotaktowa	!	!	!	!	!
2r	.	1G	-nit	4B-\	Do-	.	.
.	.	.	.	4c\	.	.	.
2G\	in	.	.	4d\	.	.	.
*	*	*	*	*custos:c	*	*	*
!	!	!	!	!LO:TX:t=P:problem=kreska pseudotaktowa	!	!	!
.	.	.	.	4B-\	.	.	.
*	*	*	*Xij	*	*	*	*
=16-	=16-	=16-	=16-	=16-	=16-	=16-	=16-
*	*	*	*	*xywh-#151:7811,2187,6376,892	*	*	*
2A\	no-	2r	.	2c\	.	1r	.
4A\	-mi-	2c\	in	2.f\	.	.	.
!LO:TX:t=P:problem=kreska pseudotaktowa	!	!	!	!	!	!	!
4A\	-ne	.	.	.	.	.	.
2.B-\	Do-	2d\	no-	.	.	2r	.
.	.	.	.	4e\	.	.	.
!	!	!	!	!	!	!LO:TX:t=P:problem=kreska pseudotaktowa	!
.	.	4d\	-mi-	4d\	.	2f\	in
!	!	!LO:TX:t=P:problem=kreska pseudotaktowa	!	!LO:TX:t=P:problem=kreska pseudotaktowa	!	!	!
4A\	.	4d\	-ne	4c\	.	.	.
=17-	=17-	=17-	=17-	=17-	=17-	=17-	=17-
2G\	.	1e	Do-	2B-\	-mi-	2g\	no-
!	!	!	!	!LO:TX:t=P:problem=kreska pseudotaktowa	!	!	!
2G\	mi-	.	.	2B-\	.	4g\	-mi-
.	.	.	.	.	.	4g\	-ne
!LO:TX:t=P:problem=kreska pseudotaktowa	!	!	!	!	!	!	!
1F	-ni	2.f\	.	2c\	-ne	2.a\	do-
.	.	.	.	1F/	in	.	.
!	!	!LO:TX:t=P:problem=kreska pseudotaktowa	!	!	!	!	!
.	.	4e\	.	.	.	4g\	.
=18-	=18-	=18-	=18-	=18-	=18-	=18-	=18-
2r	.	4d\	.	.	.	4f\	.
.	.	4c\	.	.	.	4e\	.
!	!	!	!	!LO:TX:t=P:problem=kreska pseudotaktowa	!	!LO:TX:t=P:problem=kreska pseudotaktowa	!
2BB-/	in	4B-\	.	2.G/	no-	2d\	.
.	.	4d\	-mi-	.	.	.	.
!	!	!LO:TX:t=P:problem=kreska pseudotaktowa	!	!	!	!	!
2C/	no-	1c	-ni	.	.	2.e\	.
.	.	.	.	4G/	-mi-	.	.
4C/	-mi-	.	.	1A\	-ne	.	.
!LO:TX:t=P:problem=kreska pseudotaktowa	!	!	!	!	!	!	!
4C/	-ne	.	.	.	.	4e\	-mi-
=19-	=19-	=19-	=19-	=19-	=19-	=19-	=19-
*custos:E-	*	*	*	*	*	*	*
!LO:TX:t=P:problem=kreska pseudotaktowa	!	!	!	!	!	!	!
1D	Do-	2r	.	.	.	2d\	-ni
*	*	*custos:G	*	*	*	*	*
!	!	!LO:TX:t=P:problem=kreska pseudotaktowa	!	!	!	!	!
!	!	!	!	!LO:TX:t=P:problem=kreska pseudotaktowa	!	!LO:TX:t=P:problem=kreska pseudotaktowa	!
.	.	2F/	in	2.B-\	Do-	2d\	in
*xywh-#352:7794,825,6342,967	*	*xywh-#254:1552,2363,6113,857	*	*	*	*	*
1E-X	.	2G/	no-	.	.	2B-/	no-
.	.	.	.	4A/	.	.	.
.	.	4G/	-mi-	1G/	.	4B-/	-mi-
!	!	!LO:TX:t=P:problem=kreska pseudotaktowa	!	!	!	!	!
.	.	4G/	-ne	.	.	4c/	-ne
=20-	=20-	=20-	=20-	=20-	=20-	=20-	=20-
2.D/	.	2.A/	Do-	.	.	2.d\	Do-
!	!	!	!	!LO:TX:t=P:problem=kreska pseudotaktowa	!	!	!
.	.	.	.	2F#X/	-mi-	.	.
4D/	mi-	4A/	-mi-	.	.	4d\	-(mi)-
*	*	*	*	*	*	*custos:g	*
!LO:TX:t=P:problem=kreska pseudotaktowa	!	!LO:TX:t=P:problem=kreska pseudotaktowa	!	!	!	!LO:TX:t=P:problem=kreska pseudotaktowa	!
1GG;	-ni	1B-;	-ni	1G	-ni	1d	-ni
=21||-	=21||-	=21||-	=21||-	=21||-	=21||-	=21||-	=21||-
*	*	*	*	*	*	*xywh-#49:1490,2180,6165,893	*
2r	.	2r	.	2r	.	2r	.
!	!	!	!	!LO:TX:t=P:problem=kreska pseudotaktowa	!	!LO:TX:t=P:problem=kreska pseudotaktowa	!
2GG/	O-	2d\	O-	2B#X\	O-	2g\	O-
2.C/	-ſan-	2.en\	-ſan-	2.c\	-ſan-	2.g\	-ſan-
!LO:TX:t=P:problem=kreska pseudotaktowa	!	!LO:TX:t=P:problem=kreska pseudotaktowa	!	!	!	!LO:TX:t=P:problem=kreska pseudotaktowa	!
4BB#X/	-na	4d\	-na	4d\	-na	4g\	.
=22-	=22-	=22-	=22-	=22-	=22-	=22-	=22-
4C/	in	4e\	in	4c\	in	4g\	-na
4D/	ec-	2d\	ex-	4A/	ex-	4fn\	in
!LO:TX:t=P:problem=kreska pseudotaktowa	!	!	!	!LO:TX:t=P:problem=kreska pseudotaktowa	!	!LO:TX:t=P:problem=kreska pseudotaktowa	!
2AA/	-cel-	.	.	2A/	-cel-	2e\	ex-
.	.	4c#X\	-cel-	.	.	.	.
2D,/	ſis	2d\	-ſis	4A/	-ſis/	2f#X,\	-cel-
.	.	.	.	4A/	O-	.	.
!	!	!LO:TX:t=P:problem=kreska pseudotaktowa	!	!	!	!LO:TX:t=P:problem=kreska pseudotaktowa	!
2D/	O-	2A/	O-	2.d\	-ſan-	2f#X\	-ſis
=23-	=23-	=23-	=23-	=23-	=23-	=23-	=23-
2.G\	-san-	2.B-\	-san-	.	.	2.g\	o-
.	.	.	.	4B-\	-na	.	.
!	!	!	!	!LO:TX:t=P:problem=kreska pseudotaktowa	!	!	!
.	.	.	.	2.d\	in	.	.
!	!	!	!	!	!	!LO:TX:t=P:problem=kreska pseudotaktowa	!
4F#X\	-na	4A/	-na	.	.	4a\	-ſan-
4G\	in	4B-\	in	.	.	4g\	-na
*	*	*	*	*custos:c	*	*	*
4E-X\	ex-	4B-\	ex-	4e-X\	ex-	4g\	in
*	*	*	*	*xywh-#151:7866,3023,6237,850	*	*	*
!LO:TX:t=P:problem=kreska pseudotaktowa	!	!LO:TX:t=P:problem=kreska pseudotaktowa	!	!LO:TX:t=P:problem=kreska pseudotaktowa	!	!LO:TX:t=P:problem=kreska pseudotaktowa	!
2F#\	-cel-	2A/	-cel-	2c\	-cel-	2fn\	ex-
=24-	=24-	=24-	=24-	=24-	=24-	=24-	=24-
2BB-,/	ſis	2B-,\	ſis	2d,\	-ſis	2f,\	-cel-
*	*ij	*	*ij	*	*ij	*	*
!	!	!	!	!LO:TX:t=P:problem=kreska pseudotaktowa	!	!LO:TX:t=P:problem=kreska pseudotaktowa	!
2BB-/	o-	2B-\	in	2d\	in	2f\	-ſis
*	*	*	*	*	*	*	*ij
2.F\	-ſan-	2.A/	ex-	2.c\	ex-	2.f\	in
!	!	!LO:TX:t=P:problem=kreska pseudotaktowa	!	!	!	!	!
4E\	-na	4G/	-cel-	4c\	-cel-	4g\	ex-
=25-	=25-	=25-	=25-	=25-	=25-	=25-	=25-
4F\	in	4A/	ſis	4c\	ſis	4f\	-cel-
4BB-/	ex-	4B-\	in	4d\	in	4f\	-ſis
!LO:TX:t=P:problem=kreska pseudotaktowa	!	!	!	!LO:TX:t=P:problem=kreska pseudotaktowa	!	!LO:TX:t=P:problem=kreska pseudotaktowa	!
2C/	-cel-	2G/	ex-	2c\	ex-	2en\	in
2FF/	ſis	2A,/	-cel-	2c,\	-cel-	2f,\	ex-
!	!	!LO:TX:t=P:problem=kreska pseudotaktowa	!	!	!	!	!
2BB-/	o-	2d\	ſis	2B-\	-ſis	2f\	-cel-
=26-	=26-	=26-	=26-	=26-	=26-	=26-	=26-
2.F\	-san-	2.c\	in	2.A/	O-	2.f\	-ſis
!	!	!	!	!LO:TX:t=P:problem=kreska pseudotaktowa	!	!	!
4E\	-na	4c\	ex-	4G/	-ſan-	4g\	in
!	!	!	!	!	!	!LO:TX:t=P:problem=kreska pseudotaktowa	!
2F\	in	2c\	-cel	4A/	-na	2f\	ex-
.	.	.	.	4A/	in	.	.
2G\	ex-	2B-\	ſis	1G/	ex-	2d\	-cel-
=27-	=27-	=27-	=27-	=27-	=27-	=27-	=27-
1D	-cel-	1A	.	.	.	1d	-ſis
.	.	.	.	2F#X/	-cel-	.	.
1GG;	-ſis	1Bn;	.	1G;	-sis.	1d;	.
*	*Xij	*	*Xij	*	*Xij	*	*Xij
==	==	==	==	==	==	==	==
*-	*-	*-	*-	*-	*-	*-	*-
!!!system-decoration: [(s1,s2,s3,s4)]
!!!RDF**kern: > = above
!!!RDF**kern: < = below
!!!RDF**kern: | = vertical stroke
!!!RDF**kern: N = linked
!!!RDF**kern: i = editorial accidental
!!!RDF**kern: l = terminal long
!!!ENC: Marta Opryszak
!!!END: 2022-01-10
!!!EED: Wojciech Jakubiak-Danek
!!!EEV: 2022-01-15
!!!IIIF: https://repozytorium.nifc.pl/islandora/object/pl-kk%3A750/datastream/IIIF/view
!!!ENC-iiif: Natalia Wrzos
!!!END-iiif: 2022-09-02
!!!YEC: Copyright 2022 Narodowy Instytut Fryderyka Chopina (https://polishscores.org)
!!!YEM: License CC-BY-4.0 (https://creativecommons.org/licenses/by/4.0)
